X:1
T:The Means Test Man
M:4/4
L:1/8
K:G
 G2 GG GA BG| A4 D3 D| D4 dc BA| G4 D4| E3 FG FG E| DD DG B4| AA A/2 A3/2 A3/2 A/2 AA|\
 d/2 d3/2 cB A3 D| G2 GG GA AA| A4 D4| A2 A2 dd A_B| =B6 _B=B| cc cc cB A/2A/2 G|\
 B4 A4| d2 cA E2 F2| G3/2 d/2 d3/2 d/2 d3/2 d/2 d3/2 d/2|
